X: 6042
T: Cape Breton Fiddlers' Society's Welcome To The Shetland Islands, The
R: reel
M: 4/4
K: Gmajor
dB B2 cBAB|GABd edBd|eAAG ABAG|Aeed e3f|
gB B2 dG G2|BAGE DB B2|EFGE dgge|1 dBAB G2GE:|2 dBAB G2ef||
|:gd d2 dedc|Bd d2 edBd|aeed efed|cdec A2ef|
gd d2 dedc|Bd d2 edBd|1 ecfd gedc|BcAB G2ef:|2 ecdB cABG|Agfe dGFE||
"variations"
|:dB B2 cBAB|B3A Bd d2|eAAG A2GA|Beed e3f|
gB B2 dBGA|BAGE DGBD|EGGE DGFE|1 dBcA G2GE:|2 dBcA Gdef||
|:gddc dedc|BGBd gdBd|aeed efed|cdec Adef|
gddc dedc|BGBd gdBd|1 eBfB gedc|BcAB Gdef:|2 eBfB gedB|Agfe dcBA||

